assets/Pick/Flat/pick_flat.svg

<svg width="32" height="32" viewBox="0 0 32 32" fill="none" xmlns="http://www.w3.org/2000/svg">
<path d="M8.99074 11.9106L11.9107 8.99062L10.4307 7.51062C10.1807 7.26062 9.77074 7.26062 9.52074 7.51062L7.51074 9.52062C7.26074 9.77062 7.26074 10.1806 7.51074 10.4306L8.99074 11.9106Z" fill="#7D4533"/>
<path d="M28.1707 29.7206L29.7207 28.1706C30.0907 27.7906 30.0907 27.1806 29.7207 26.8006L15.8107 12.8906L12.0001 12.5L12.8907 15.8106L26.8007 29.7206C27.1807 30.1006 27.7907 30.1006 28.1707 29.7206Z" fill="#7D4533"/>
<path d="M21.9806 2.02059C17.8506 3.04059 12.9506 5.52059 9.24058 9.24059C5.53058 12.9606 3.04058 17.8506 2.02058 21.9806C1.86058 22.6406 2.67058 23.1006 3.16058 22.6206L10.4306 15.3506C10.5806 15.2006 10.8306 15.2006 10.9806 15.3506L11.8006 16.1706C12.0006 16.3706 12.3306 16.3706 12.5306 16.1706L16.1806 12.5206C16.3806 12.3206 16.3806 11.9906 16.1806 11.7906L15.3606 10.9706C15.2106 10.8206 15.2106 10.5706 15.3606 10.4206L22.6306 3.15059C23.1006 2.67059 22.6506 1.86059 21.9806 2.02059Z" fill="#B4ACBC"/>
</svg>

<svg xmlns="http://www.w3.org/2000/svg" width="32" height="32" fill="none"><path fill="#7D4533" d="m8.99 11.91 2.92-2.92-1.48-1.48a.646.646 0 0 0-.91 0L7.51 9.52c-.25.25-.25.66 0 .91l1.48 1.48ZM28.17 29.72l1.55-1.55c.37-.38.37-.99 0-1.37L15.81 12.89 12 12.5l.89 3.31L26.8 29.72c.38.38.99.38 1.37 0Z"/><path fill="#B4ACBC" d="M21.98 2.02c-4.13 1.02-9.03 3.5-12.74 7.22-3.71 3.72-6.2 8.61-7.22 12.74-.16.66.65 1.12 1.14.64l7.27-7.27c.15-.15.4-.15.55 0l.82.82c.2.2.53.2.73 0l3.65-3.65c.2-.2.2-.53 0-.73l-.82-.82a.392.392 0 0 1 0-.55l7.27-7.27c.47-.48.02-1.29-.65-1.13Z"/></svg>
